icons/gallbladder.svg

<svg width="48" height="48" viewBox="0 0 48 48" fill="none" xmlns="http://www.w3.org/2000/svg">
<path fill-rule="evenodd" clip-rule="evenodd" d="M28.5615 19.985C29.0876 20.342 29.5716 20.7616 30 21.2448V6H32V17.3085C32.7583 16.3009 33.7392 15.4285 34.9664 14.6543C37.2062 13.2413 37.8041 11.6796 37.7223 10.5323C37.6374 9.34206 36.818 8.32677 35.6838 7.9487L36.3162 6.05134C38.182 6.67327 39.5722 8.35626 39.7172 10.3901C39.7683 11.107 39.6645 11.8371 39.3965 12.5554C41.1113 11.909 42.75 11.4234 43.7541 11.1687L44.2459 13.1073C42.3798 13.5806 38.4154 14.8432 36.0336 16.3458C34.6853 17.1964 33.7663 18.1293 33.1416 19.1965C32.5208 20.2571 32.1569 21.5076 32 23.0499V42H30V27C30 24.3185 28.9037 22.6342 27.4385 21.64C26.1575 20.7707 24.5286 20.3877 22.9596 20.4293C22.9862 20.6157 23 20.8063 23 21C23 22.5142 22.1587 23.8319 20.9179 24.5111C19.949 25.0414 19 25.8954 19 27V33H18.9811C18.7257 36.3562 15.9216 39 12.5 39C9.07839 39 6.27426 36.3562 6.01894 33H6V30C6 22.8203 11.8203 17 19 17C20.2546 17 21.3743 17.5776 22.1077 18.4814C24.2416 18.2632 26.6419 18.6825 28.5615 19.985ZM19 19C12.9249 19 8 23.9249 8 30V32.675L8.01318 32.8483C8.18978 35.1698 10.1321 37 12.5 37C14.8679 37 16.8102 35.1698 16.9868 32.8483L17 32.675V27C17 25.8393 17.5055 24.9051 18.0775 24.2382C18.6407 23.5815 19.3371 23.0964 19.9576 22.7567C20.5831 22.4143 21 21.7544 21 21C21 19.8954 20.1046 19 19 19Z" fill="black"/>
</svg>

<svg
  xmlns="http://www.w3.org/2000/svg"
  width="24"
  height="24"
  viewBox="0 0 24 24"
  fill="none"
  stroke="currentColor"
  stroke-width="2"
  stroke-linecap="round"
  stroke-linejoin="round"
>
  <path
    fill-rule="evenodd"
    d="M28.562 19.985A7.7 7.7 0 0 1 30 21.245V6h2v11.308c.758-1.007 1.74-1.88 2.966-2.654 2.24-1.413 2.838-2.974 2.756-4.122-.085-1.19-.904-2.205-2.038-2.583l.632-1.898c1.866.622 3.256 2.305 3.401 4.34a5.1 5.1 0 0 1-.32 2.164 44 44 0 0 1 4.357-1.386l.492 1.938c-1.866.474-5.83 1.736-8.212 3.239-1.349.85-2.268 1.783-2.892 2.85-.621 1.061-.985 2.312-1.142 3.854V42h-2V27c0-2.681-1.096-4.366-2.561-5.36-1.282-.87-2.91-1.252-4.48-1.21q.04.279.041.57a4 4 0 0 1-2.082 3.511C19.949 25.041 19 25.895 19 27v6h-.019A6.5 6.5 0 0 1 6.02 33H6v-3c0-7.18 5.82-13 13-13 1.255 0 2.374.578 3.108 1.481 2.134-.218 4.534.201 6.453 1.504M19 19c-6.075 0-11 4.925-11 11v2.675l.013.173a4.5 4.5 0 0 0 8.974 0l.013-.173V27c0-1.16.506-2.095 1.078-2.762.563-.657 1.26-1.142 1.88-1.481A1.999 1.999 0 0 0 19 19"
    clip-rule="evenodd"
  />
</svg>
